X:1
T:THE “GRAVEL” RAG
T:THE “GRAVEL” RAG
T:CHARLOTTE BLAKE.
T:Copyright 1908 by JEROME H. REMICK &amp; Co.
T:Copyright 1908 by JEROME H. REMICK &amp; Co.
T:Copyright 1908 by JEROME H. REMICK &amp; Co.
T:Copyright 1908 by JEROME H. REMICK &amp; Co.
Z:Copyright 1908 by JEROME H. REMICK & Co.
%%score { ( 1 4 ) | ( 2 3 ) }
L:1/8
Q:1/4=90
M:2/4
K:G
V:1 treble nm="Piano" snm="Pno."
V:4 treble 
V:2 treble 
V:3 treble 
V:1
"^Marcia."!mf! d/>d'/ b/>g/ d2 | z3/4 c'/4 a/>f/ d/>^d/e/>f/ |!f! z3/4 d/4 B/>G/ D2 | %3
 z3/4 c/4 A/>F/ D/>^D/ E/>F/ |!mf! G[G,B,D] z [G,B,D] | z [G,B,D]z[G,B,D] || %6
!mf!"^Not too fast." z3/4 d/4 B/>G/ D/>E/ F/>G/ | A/>^G/ A/>B/ d/>B/ A/>B/ |x/>B/d/>g/x/>B/d/>g/ | %9
x!>![GBe]!>![GBe] e/>f/ | g/>f/ e/>g/ fd/>^d/ | e/>f/ e/>c/ F d'/>^d'/ | e'/>f'/ e'/>c'/ fd/>^d/ | %13
 e/>f/ e/>d/ B[DG] |!mf! z3/4 d/4 B/>G/ D/>E/ F/>G/ | A/>^G/ A/>B/ d/>B/ A/>B/ | %16
x/>B/d/>g/x/>B/d/>g/ |x!>![GBe]!>![GBe] e/>f/ | g/>f/ g/>b/ a/>f/d | e/>^d/ e/>g/ f/>=d/B | %20
 c/>B/ c/>e/ d/>B/ A/>B/ | GD E_E ||!f! z [Bdb] [^A^c^a]<[Bdb] | [dfd'][Bfb]/[Afa]/- [Afa]2 | %24
 z [Bb]/[dg]/ [^A^a]<[Bb] | [Dd]3 B,/D/ | [B,E][B,F] [B,G][B,E] | F/^E/F/D/- DD/E/ | %28
 [DF][EG] [FA][Fd] | B/^A/B/G/- G[Bd] | z [Bdb] [^A^c^a]<[Bdb] | [dfd'][Bfb]/[Afa]/- [Afa]2 | %32
 z [Bb]/[dg]/ [^A^a]<[Bb] | [Dd]3 G/A/ | (_e4 | d4) | z edB | [B,G][G,B,D] z [G,B,D] || %38
!mf! z3/4 d/4 B/>G/ D/>E/ F/>G/ | A/>^G/ A/>B/ d/>B/ A/>B/ |x/>B/d/>g/x/>B/d/>g/ | %41
x!>![GBe]!>![GBe] e/>f/ | g/>f/ e/>g/ fd/>^d/ | e/>f/ e/>c/ F!f! d'/>^d'/ | %44
 e'/>f'/ e'/>c'/ fd/>^d/ | e/>f/ e/>d/ B[DG] |!mf! z3/4 d/4 B/>G/ D/>E/ F/>G/ | %47
 A/>^G/ A/>B/ d/>B/ A/>B/ |x/>B/d/>g/x/>B/d/>g/ |x!>![GBe]!>![GBe] e/>f/ | g/>f/ g/>b/ a/>f/d | %51
 e/>^d/ e/>g/ f/>=d/B | c/>B/ c/>e/ d/>B/ A/>B/ | G2 [GBdg] z ||[K:C]!p!"^TRIO." E/GE/ [EG]2- | %55
 [EG]C/>D/ _A2 | =E/GE/ [EA]2- | [EA]G/>A/ B/>A/ G/>^G/ | [FA]/[FB][FG]/ [FA]2- | %59
 [FA]G/>A/ B/G/A/B/ | c!<(!([CG] [C^F][C=F] | [CE]!<)!!>(![C_E] [CD][B,^DG])!>)! | E/GE/ [EG]2- | %63
 [EG]C/>D/ _A2 | =E/GE/ [EA]2- | [EA]G/>A/ B/>A/ G/>F/ | E/[C^FA]E/ [CFA]2- | %67
!<(! [C^FA]^G/>A/!<)! !>!c/>A/ F/>^D/ | GE- E/>G/ D/>G/ | C z [GBdg]2 ||!f! [ce]/[Gg][ce]/ [Gg]2- | %71
 [Gg]c/>d/ _e/>d/c | [ce]/[Gg][ce]/ [Aea]2- | [Aea]g/>a/ b/>a/ g/>^g/ | [fa]/[fb][fg]/ [fa]2- | %75
 [fa]g/>a/ b/g/a/b/ | c'[Gcg] [^Fc^f][=Fc=f] | [Ece][_Ec_e] [Dcd][GB^dg] | [ce]/[Gg][ce]/ [Gg]2- | %79
 [Gg]c/>d/ _e/>d/c | [ce]/[Gg][ce]/ [Aea]2- | [Aea]g/>a/ b/>a/ g/>f/ | e/[c^fa]e/ [cfa]2- | %83
 [c^fa]^g/>a/ !>!c'/>a/ f/>^d/ | [Gg]!>![ce]- [ce]/>g/ d/>g/ | [Gc]!<(! !>!G!>!A!>!_A!<)! || %86
!ff! z [ege'] [^d^f^d']<[ege'] | [gbg'][ebe']/[dbd']/- [dbd']2 | z [ee']/[gc']/ [^d^d']<[ee'] | %89
 [Gg]3 (E/G/) | [EA][EB] [Ec][EA] | B/^A/B/G/- GG/A/ | [GB][Ac] [Bd][Bg] | e/^d/e/c/- c[eg] | %94
 z [ege'] [^d^f^d']<[ege'] | [gbg'][ebe']/[dbd']/- [dbd']2 | z [ee']/[gc']/ [^d^d']<[ee'] | %97
 [Gg]3 (c/d/) | (_a4 | g4) | z age | [Ec] z [cegc'] z |] %102
V:2
 [DGB]3 [^CG_B] | [=CFA]3 z |[K:bass] [D,G,B,]3 [^C,G,_B,] | [=C,F,A,]3 !>![D,F,C] | G,,D, D,,D, | %5
 G,,D, D,,D, ||x[D,G,B,][D,G,B,] !>!_B,, | A,,[D,F,C] D,,[D,F,C] | G,,[D,G,B,] D,,[D,G,B,] | %9
 G,,[D,G,B,] D,,[D,G,B,] | G,,[D,G,B,] D,,[D,G,B,] | A,,[D,F,C] D,,[D,F,C] | %12
 A,,[D,F,C] D,,[D,F,C] | G,,[D,G,B,] D,,[D,G,B,] |x[D,G,B,][D,G,B,] !>!_B,, | %15
 A,,[D,F,C] D,,[D,F,C] | G,,[D,G,B,] D,,[D,G,B,] |x!>![D,G,B,]!>![D,G,B,] z | E,[G,B,E] D,[F,A,D] | %19
 C,[E,G,C] B,,[F,B,D] | A,,[E,G,C] D,,[D,F,C] | [G,B,]D, E,_E, || [G,,D,][D,G,B,] D,,[D,G,B,] | %23
 A,,[D,F,C] [D,F,C](3D,,/E,,/F,,/ | G,,[D,G,B,] D,,[D,G,B,] | G,,[D,G,B,] D,,[D,G,B,] | %26
 G,,[D,G,] D,,[D,G,] | A,,[D,F,C] D,,[D,F,C] | A,,[D,F,C] D,,[D,F,C] | G,,[D,G,B,] z/ E,/D,/B,,/ | %30
 G,,[D,G,B,] D,,[D,G,B,] | A,,[D,F,C] [D,F,C](3D,,/E,,/F,,/ | G,,[D,G,B,] D,,[D,G,B,] | %33
x[D,G,B,][D,G,B,] z | _E,[G,_B,_E] E,[G,B,E] | D,[G,B,=D] D,[G,B,D] | A,,[D,F,C] D,,D, | %37
 G,,2 [D,,D,]2 ||x[D,G,B,][D,G,B,] !>!_B,, | A,,[D,F,C] D,,[D,F,C] | G,,[D,G,B,] D,,[D,G,B,] | %41
 G,,[D,G,B,] D,,[D,G,B,] | G,,[D,G,B,] D,,[D,G,B,] | A,,[D,F,C] D,,[D,F,C] | %44
 A,,[D,F,C] D,,[D,F,C] | G,,[D,G,B,] D,,[D,G,B,] |x[D,G,B,][D,G,B,] !>!_B,, | %47
 A,,[D,F,C] D,,[D,F,C] | G,,[D,G,B,] D,,[D,G,B,] |x!>![D,G,B,]!>![D,G,B,] z | E,[G,B,E] D,[F,A,D] | %51
 C,[E,G,C] B,,[F,B,D] | A,,[E,G,C] D,,[D,F,C] | [G,B,]D, !>!G,, z ||[K:C] C,[E,G,C] G,,[E,G,C] | %55
 C,[E,G,] _A,,[_E,_A,] | C,[=E,G,C] G,,[E,G,C] | C,[E,G,C] G,,[E,G,C] | D,[F,G,B,] G,,[F,G,B,] | %59
 D,[F,G,B,] G,,[F,G,B,] |x(_B,A,_A, | G,^F, =F,2) | C,[E,G,C] G,,[E,G,C] | C,[E,G,] _A,,[_E,_A,] | %64
 C,[=E,G,C] G,,[E,G,C] | C,[E,G,C] G,,[E,G,C] | A,,[D,^F,] D,,[D,F,] | A,,[D,^F,C] ^F,,[F,A,C] | %68
 z"^dim." !>!G,2 [G,,F,] | [C,E,] z !>![G,,G,]2 || C,[E,G,C] G,,[E,G,C] | C,[E,G,] _A,,[_E,_A,C] | %72
 C,[=E,G,C] G,,[E,G,C] | C,[E,G,C] G,,[E,G,C] | D,[F,G,B,] G,,[F,G,B,] | D,[F,G,B,] G,,[F,G,B,] | %76
x!>!_B,!>!A,!>!_A, | !>!G,!>!^F, !>!=F,2 | C,[E,G,C] G,,[E,G,C] | C,[E,G,] _A,,[_E,_A,C] | %80
 C,[=E,G,C] G,,[E,G,C] | C,[E,G,C] G,,[E,G,C] | A,,[D,F,C] D,,[D,F,C] | A,,[D,^F,C] ^F,,[F,A,^D] | %84
 G,, !>![G,CE]2 [G,B,F] | [CE] !>![G,,G,]!>![A,,A,]!>![_A,,_A,] || [C,G,][G,CE] G,,[G,CE] | %87
 D,[G,B,F] [G,B,F](3G,,/A,,/B,,/ | C,[G,CE] G,,[G,CE] | C,[E,G,C] G,,[E,G,C] | %90
 C,[E,G,C] G,,[E,G,C] | D,[F,G,B,] G,,[F,G,B,] | D,[F,G,B,] G,,[F,G,B,] | C,[G,CE] z/ A,/G,/E,/ | %94
 C,[G,CE] G,,[G,CE] | D,[G,B,F] [G,B,F](3G,,/A,,/B,,/ | C,[G,CE] G,,[G,CE] | C,[E,G,C] G,,[E,G,C] | %98
 A,,[_E,_A,C] A,,[E,A,C] | C,[=E,G,C] C,[E,G,C] | D,[G,B,F] G,,G, | [C,G,C] z [C,,C,] z |] %102
V:3
 x4 | x4 |[K:bass] x4 | x4 | x4 | x4 || G,,3 x | x4 | x4 | x4 | x4 | x4 | x4 | x4 | G,,3 x | x4 | %16
 x4 | G,,3 x | x4 | x4 | x4 | x4 || x4 | x4 | x4 | x4 | x4 | x4 | x4 | x4 | x4 | x4 | x4 | G,,3 x | %34
 x4 | x4 | x4 | x4 || G,,3 x | x4 | x4 | x4 | x4 | x4 | x4 | x4 | G,,3 x | x4 | x4 | G,,3 x | x4 | %51
 x4 | x4 | x4 ||[K:C] x4 | x4 | x4 | x4 | x4 | x4 | (C,4 | G,,4) | x4 | x4 | x4 | x4 | x4 | x4 | %68
 G,,2 x2 | x4 || x4 | x4 | x4 | x4 | x4 | x4 | (C,4 | G,,4) | x4 | x4 | x4 | x4 | x4 | x4 | x4 | %85
 x4 || x4 | x4 | x4 | x4 | x4 | x4 | x4 | x4 | x4 | x4 | x4 | x4 | x4 | x4 | x4 | x4 |] %102
V:4
 x4 | x4 | x4 | x4 | x4 | x4 || x4 | x4 | (G2 F2 | E3) x | x4 | x4 | x4 | x2 B2 | x4 | x4 | %16
 (G2 F2 | E3) x | x4 | x4 | x4 | x4 || x4 | x4 | x b x2 | x [GB][GB] x | x4 | C x3 | x4 | %29
 G x/ x/- G2 | x4 | x4 | x b x2 | x [GB][GB] x | _BG/>A/ B/>A/G | =BG/>A/ B/>A/G | %36
 x c/E/ B/D/[CF] | x4 || x4 | x4 | G2 F2 | E3 x | x4 | x4 | x4 | x2 B2 | x4 | x4 | G2 F2 | E3 x | %50
 x4 | x4 | x4 | x4 ||[K:C] x4 | x2 _E/>D/C | x4 | x4 | x4 | x4 | x4 | x4 | x4 | x2 _E/>D/C | x4 | %65
 x4 | x4 | x4 | z C2 !>!B, | x4 || x3 [ce] | x2 _a2 | x4 | x4 | x4 | x4 | x4 | x4 | x3 [ce] | %79
 x2 _a2 | x4 | x4 | x4 | x4 | x3 B | x4 || x4 | x4 | x e' x2 | x [ce][ce] x | x4 | F2 x2 | x4 | %93
 c x/ x/- c2 | x4 | x4 | x e' x2 | x [ce][ce] x | _ec/>d/ e/>d/c | =ec/>d/ e/>d/c | %100
 x f/A/ e/G/[FB] | x4 |] %102

